svgs/sharp-regular/hotel.svg

<svg xmlns="http://www.w3.org/2000/svg" viewBox="0 0 512 512"><!--! Font Awesome Pro 6.6.0 by @fontawesome - https://fontawesome.com License - https://fontawesome.com/license (Commercial License) Copyright 2024 Fonticons, Inc. --><path d="M512 0L0 0 0 48l32 0 0 416L0 464l0 48 512 0 0-48-32 0 0-416 32 0 0-48zM432 464l-128 0 0-80 48 0c0-53-43-96-96-96s-96 43-96 96l48 0 0 80L80 464 80 48l352 0 0 416zM192 96l-64 0 0 64 64 0 0-64zm32 0l0 64 64 0 0-64-64 0zm160 0l-64 0 0 64 64 0 0-64zM128 192l0 64 64 0 0-64-64 0zm160 0l-64 0 0 64 64 0 0-64zm32 0l0 64 64 0 0-64-64 0z"/></svg>

<svg xmlns="http://www.w3.org/2000/svg" viewBox="0 0 512 512"><!--! Font Awesome Pro 6.4.0 by @fontawesome - https://fontawesome.com License - https://fontawesome.com/license (Commercial License) Copyright 2023 Fonticons, Inc. --><path d="M512 0H0V48H32V464H0v48H512V464H480V48h32V0zM432 464H304V384h48c0-53-43-96-96-96s-96 43-96 96h48v80H80V48H432V464zM192 96H128v64h64V96zm32 0v64h64V96H224zm160 0H320v64h64V96zM128 192v64h64V192H128zm160 0H224v64h64V192zm32 0v64h64V192H320z"/></svg>
